X: 1
T: Orpington Caledonians
C: Robin Ellis
R: reel
N: Tune for the dance of the same name
Z: 2015 John Chambers <jc:trillian.mit.edu>
B: RSCDS 49-2
M: C|
L: 1/8
K: A
E2 |\
"A"AGAB "D"dcBA | "E7"BABc "A7"A2Bc |\
"D"dfed "A"cedc | "B7"BABc "E7"B2E2 |
"A"AGAB "D"dcBA | "E7"BABc "A7"A2Bc |\
"Bm"dfed "E7"cBAG | "A"A2c2 A2 :|
|: c2 |\
"A"ecAc e2e2 | "E7"BGEG B2B2 |\
"D"AFDF A2A2 | "Bm"GFEF "E7"GABc |
"A"ecAc e2e2 | "E7"BGEG B2B2 |\
"Bm"AGFE "E7"FGAB | "A"A2c2 A2 :|
